X:111
T:The Major
Z:Jack Campin, http://www.campin.me.uk/
S:Northumbrian Minstrelsy
M:6/8
L:1/8
K:G
dBG g3 |dBG GBd|dBG g3 |cAF ABc |
dBG g3 |dBG g3 |dBG g3 |cAF ABc:|
dBG dBG|dBG ABc|dBG dBG|cAF ABc |
dBG dBG|dBG dBG|edc fed|cAF ABc:|

